src/symbolic/status/capslock-disabled-symbolic.svg

<svg xmlns="http://www.w3.org/2000/svg" width="16" height="16" version="1.1">
 <g style="opacity:0.3">
  <path style="fill:#444444" d="M 0,13.203 5.2738e-4,13.75 C 0.0017,14.962 1.0386,16 2.2504,16 H 13.75 C 14.962,16 16,14.962 16,13.75 V 13.203 C 15.468,13.688 14.775,14 14,14 H 2.0004 C 1.2258,14 0.53159,13.688 0,13.203 Z"/>
  <path style="fill:#444444" d="M 3,0 C 1.9808,-2e-4 1.1244,0.7663 1.0117,1.7793 L 0.01172,10.779 C -0.11988,11.964 0.80783,13 2,13 H 14 C 15.192,13 16.12,11.964 15.988,10.779 L 14.988,1.7793 C 14.875,0.7664 14.019,-10e-5 13,0 Z M 6.8984,2 H 9.2129 L 12.123,11 H 10.213 L 9.6035,9 H 6.5273 L 5.9102,11 H 4 Z M 8.0801,3.2969 7,7.289 H 9.1797 Z"/>
 </g>
</svg>

<svg xmlns="http://www.w3.org/2000/svg" width="16" height="16"><g opacity=".3" fill="#444"><path d="M0 13.203v.547C.003 14.962 1.04 16 2.25 16h11.5c1.212 0 2.25-1.038 2.25-2.25v-.547A2.96 2.96 0 0 1 14 14H2a2.96 2.96 0 0 1-2-.797zM3 0a2 2 0 0 0-1.988 1.78l-1 8.999A2 2 0 0 0 2 13h12a2 2 0 0 0 1.988-2.221l-1-9A2 2 0 0 0 13 0zm3.898 2h2.315l2.91 9h-1.91l-.61-2H6.527l-.617 2H4zM8.08 3.297L7 7.289h2.18z"/></g></svg>
